Newaita-dark/apps/scalable/ms-word.svg

<?xml version="1.0" encoding="UTF-8"?>
<svg xmlns="http://www.w3.org/2000/svg" xmlns:xlink="http://www.w3.org/1999/xlink" width="512pt" height="512pt" viewBox="0 0 512 512" version="1.1">
<defs>
<radialGradient id="radial0" gradientUnits="userSpaceOnUse" cx="450.908936" cy="189.579361" fx="450.908936" fy="189.579361" r="21.166656" gradientTransform="matrix(0.00000278673,-1.250119,-2.250215,-0.00000162462,823.506047,1017.525287)">
<stop offset="0" style="stop-color:rgb(0%,0%,0%);stop-opacity:0.313725;"/>
<stop offset="0.222222" style="stop-color:rgb(0%,0%,0%);stop-opacity:0.27451;"/>
<stop offset="1" style="stop-color:rgb(0%,0%,0%);stop-opacity:0;"/>
</radialGradient>
<radialGradient id="radial1" gradientUnits="userSpaceOnUse" cx="450.908936" cy="189.579361" fx="450.908936" fy="189.579361" r="21.166656" gradientTransform="matrix(-0.00000278673,1.250119,2.250215,0.00000162462,-315.457429,-120.439696)">
<stop offset="0" style="stop-color:rgb(0%,0%,0%);stop-opacity:0.313725;"/>
<stop offset="0.222222" style="stop-color:rgb(0%,0%,0%);stop-opacity:0.27451;"/>
<stop offset="1" style="stop-color:rgb(0%,0%,0%);stop-opacity:0;"/>
</radialGradient>
<radialGradient id="radial2" gradientUnits="userSpaceOnUse" cx="450.908936" cy="189.579361" fx="450.908936" fy="189.579361" r="21.166656" gradientTransform="matrix(-0.00000278673,-1.250119,2.250215,-0.00000162462,-315.457429,1017.525287)">
<stop offset="0" style="stop-color:rgb(0%,0%,0%);stop-opacity:0.313725;"/>
<stop offset="0.222222" style="stop-color:rgb(0%,0%,0%);stop-opacity:0.27451;"/>
<stop offset="1" style="stop-color:rgb(0%,0%,0%);stop-opacity:0;"/>
</radialGradient>
<radialGradient id="radial3" gradientUnits="userSpaceOnUse" cx="450.908936" cy="189.579361" fx="450.908936" fy="189.579361" r="21.166656" gradientTransform="matrix(0.00000278673,1.250119,-2.250215,0.00000162462,823.506017,-120.439703)">
<stop offset="0" style="stop-color:rgb(0%,0%,0%);stop-opacity:0.313725;"/>
<stop offset="0.222222" style="stop-color:rgb(0%,0%,0%);stop-opacity:0.27451;"/>
<stop offset="1" style="stop-color:rgb(0%,0%,0%);stop-opacity:0;"/>
</radialGradient>
<linearGradient id="linear0" gradientUnits="userSpaceOnUse" x1="255.322968" y1="228.178589" x2="255.323044" y2="254.666656" gradientTransform="matrix(4.275213,0,0,0.799179,-795.19855,266.187344)">
<stop offset="0" style="stop-color:rgb(0%,0%,0%);stop-opacity:0.27451;"/>
<stop offset="1" style="stop-color:rgb(0%,0%,0%);stop-opacity:0;"/>
</linearGradient>
<linearGradient id="linear1" gradientUnits="userSpaceOnUse" x1="328.083344" y1="233.5" x2="328.083344" y2="-168.666672" gradientTransform="matrix(1.000095,0,0,1.000095,0,215.020531)">
<stop offset="0" style="stop-color:rgb(87.843137%,87.843137%,87.843137%);stop-opacity:1;"/>
<stop offset="1" style="stop-color:rgb(93.333333%,93.333333%,93.333333%);stop-opacity:1;"/>
</linearGradient>
<linearGradient id="linear2" gradientUnits="userSpaceOnUse" x1="275.166656" y1="233.5" x2="275.166656" y2="-168.666656" gradientTransform="matrix(1,0,0,1,-10.58334,0)">
<stop offset="0" style="stop-color:rgb(36.078431%,41.960784%,75.294118%);stop-opacity:1;"/>
<stop offset="1" style="stop-color:rgb(47.45098%,52.54902%,79.607843%);stop-opacity:1;"/>
</linearGradient>
<linearGradient id="linear3" gradientUnits="userSpaceOnUse" x1="127" y1="233.5" x2="127" y2="-168.666656" gradientTransform="matrix(1.000095,0,0,1.000095,-0.00000333365,215.02053)">
<stop offset="0" style="stop-color:rgb(36.078431%,41.960784%,75.294118%);stop-opacity:1;"/>
<stop offset="1" style="stop-color:rgb(47.45098%,52.54902%,79.607843%);stop-opacity:1;"/>
</linearGradient>
<linearGradient id="linear4" gradientUnits="userSpaceOnUse" x1="285.75" y1="170" x2="285.75" y2="-232.166672" gradientTransform="matrix(1,0,0,1,-10.58334,63.500004)">
<stop offset="0" style="stop-color:rgb(36.078431%,41.960784%,75.294118%);stop-opacity:1;"/>
<stop offset="1" style="stop-color:rgb(47.45098%,52.54902%,79.607843%);stop-opacity:1;"/>
</linearGradient>
<linearGradient id="linear5" gradientUnits="userSpaceOnUse" x1="285.75" y1="106.5" x2="285.75" y2="-295.666656" gradientTransform="matrix(1,0,0,1,-10.58334,127)">
<stop offset="0" style="stop-color:rgb(36.078431%,41.960784%,75.294118%);stop-opacity:1;"/>
<stop offset="1" style="stop-color:rgb(47.45098%,52.54902%,79.607843%);stop-opacity:1;"/>
</linearGradient>
<linearGradient id="linear6" gradientUnits="userSpaceOnUse" x1="285.75" y1="43" x2="285.75" y2="-359.166656" gradientTransform="matrix(1,0,0,1,-10.58334,190.5)">
<stop offset="0" style="stop-color:rgb(36.078431%,41.960784%,75.294118%);stop-opacity:1;"/>
<stop offset="1" style="stop-color:rgb(47.45098%,52.54902%,79.607843%);stop-opacity:1;"/>
</linearGradient>
</defs>
<g id="surface1">
<path style=" stroke:none;fill-rule:nonzero;fill:url(#radial0);" d="M 402.207031 448.542969 L 444.542969 448.542969 L 444.542969 427.375 L 402.207031 427.375 Z M 402.207031 448.542969 "/>
<path style=" stroke:none;fill-rule:nonzero;fill:url(#radial1);" d="M 105.84375 448.542969 L 63.507812 448.542969 L 63.507812 469.710938 L 105.84375 469.710938 Z M 105.84375 448.542969 "/>
<path style=" stroke:none;fill-rule:nonzero;fill:url(#radial2);" d="M 105.84375 448.542969 L 63.507812 448.542969 L 63.507812 427.375 L 105.84375 427.375 Z M 105.84375 448.542969 "/>
<path style=" stroke:none;fill-rule:nonzero;fill:url(#radial3);" d="M 402.207031 448.542969 L 444.542969 448.542969 L 444.542969 469.710938 L 402.207031 469.710938 Z M 402.207031 448.542969 "/>
<path style=" stroke:none;fill-rule:nonzero;fill:url(#linear0);" d="M 105.84375 440.109375 L 402.203125 440.109375 L 402.203125 469.710938 L 105.84375 469.710938 Z M 105.84375 440.109375 "/>
<path style=" stroke:none;fill-rule:nonzero;fill:url(#linear1);" d="M 179.933594 46.335938 L 423.375 46.335938 C 435.066406 46.335938 444.542969 55.816406 444.542969 67.507812 L 444.542969 427.375 C 444.542969 439.066406 435.066406 448.542969 423.375 448.542969 L 179.933594 448.542969 C 168.242188 448.542969 158.765625 439.066406 158.765625 427.375 L 158.765625 67.507812 C 158.765625 55.816406 168.242188 46.335938 179.933594 46.335938 Z M 179.933594 46.335938 "/>
<path style=" stroke:none;fill-rule:nonzero;fill:rgb(13.333334%,13.333334%,13.333334%);fill-opacity:0.156863;" d="M 444.542969 258.023438 L 364.582031 285.878906 L 392.433594 365.839844 L 444.542969 347.691406 Z M 351.253906 290.523438 L 271.289062 318.375 L 299.144531 398.339844 L 379.109375 370.484375 Z M 444.542969 362.632812 L 397.078125 379.167969 L 421.242188 448.542969 L 423.375 448.542969 C 435.101562 448.542969 444.542969 439.101562 444.542969 427.375 Z M 383.75 383.8125 L 303.789062 411.664062 L 316.632812 448.542969 L 406.300781 448.542969 Z M 383.75 383.8125 "/>
<path style="fill-rule:nonzero;fill:url(#linear2);stroke-width:3;stroke-linecap:round;stroke-linejoin:round;stroke:rgb(12.941177%,12.941177%,12.941177%);stroke-opacity:1;stroke-miterlimit:4;" d="M 232.833234 -105.166739 L 402.16472 -105.166739 C 408.011818 -105.166739 412.749647 -100.42891 412.749647 -94.581812 L 412.749647 -84.000791 C 412.749647 -78.153693 408.011818 -73.415864 402.16472 -73.415864 L 232.833234 -73.415864 C 226.990042 -73.415864 222.248308 -78.153693 222.248308 -84.000791 L 222.248308 -94.581812 C 222.248308 -100.42891 226.990042 -105.166739 232.833234 -105.166739 Z M 232.833234 -105.166739 " transform="matrix(1.000095,0,0,1.000095,0,215.020531)"/>
<path style=" stroke:none;fill-rule:nonzero;fill:rgb(100%,100%,100%);fill-opacity:1;" d="M 179.933594 46.335938 C 168.207031 46.335938 158.765625 55.777344 158.765625 67.507812 L 158.765625 72.796875 C 158.765625 61.070312 168.207031 51.628906 179.933594 51.628906 L 423.375 51.628906 C 435.101562 51.628906 444.542969 61.070312 444.542969 72.796875 L 444.542969 67.507812 C 444.542969 55.777344 435.101562 46.335938 423.375 46.335938 Z M 179.933594 46.335938 "/>
<path style=" stroke:none;fill-rule:nonzero;fill:rgb(0%,0%,0%);fill-opacity:0.235294;" d="M 158.765625 422.082031 L 158.765625 427.375 C 158.765625 439.101562 168.207031 448.542969 179.933594 448.542969 L 423.375 448.542969 C 435.101562 448.542969 444.542969 439.101562 444.542969 427.375 L 444.542969 422.082031 C 444.542969 433.808594 435.101562 443.25 423.375 443.25 L 179.933594 443.25 C 168.207031 443.25 158.765625 433.808594 158.765625 422.082031 Z M 158.765625 422.082031 "/>
<path style=" stroke:none;fill-rule:nonzero;fill:rgb(12.941177%,12.941177%,12.941177%);fill-opacity:1;" d="M 179.933594 44.839844 C 167.402344 44.839844 157.265625 54.972656 157.265625 67.507812 L 157.265625 427.375 C 157.265625 439.90625 167.402344 450.042969 179.933594 450.042969 L 423.375 450.042969 C 435.90625 450.042969 446.042969 439.90625 446.042969 427.375 L 446.042969 67.507812 C 446.042969 54.972656 435.90625 44.839844 423.375 44.839844 Z M 179.933594 47.839844 L 423.375 47.839844 C 434.296875 47.839844 443.042969 56.585938 443.042969 67.507812 L 443.042969 427.375 C 443.042969 438.296875 434.296875 447.042969 423.375 447.042969 L 179.933594 447.042969 C 169.011719 447.042969 160.265625 438.296875 160.265625 427.375 L 160.265625 67.507812 C 160.265625 56.585938 169.011719 47.839844 179.933594 47.839844 Z M 179.933594 47.839844 "/>
<path style=" stroke:none;fill-rule:nonzero;fill:url(#linear3);" d="M 84.675781 46.335938 C 72.949219 46.335938 63.507812 55.777344 63.507812 67.507812 L 63.507812 427.375 C 63.507812 439.101562 72.949219 448.542969 84.675781 448.542969 L 190.519531 448.542969 L 190.519531 46.335938 Z M 84.675781 46.335938 "/>
<path style=" stroke:none;fill-rule:nonzero;fill:rgb(100%,100%,100%);fill-opacity:0.392157;" d="M 84.675781 46.335938 C 72.949219 46.335938 63.507812 55.777344 63.507812 67.507812 L 63.507812 72.796875 C 63.507812 61.070312 72.949219 51.628906 84.675781 51.628906 L 185.226562 51.628906 L 185.226562 448.542969 L 190.519531 448.542969 L 190.519531 46.335938 Z M 84.675781 46.335938 "/>
<path style=" stroke:none;fill-rule:nonzero;fill:rgb(0%,0%,0%);fill-opacity:0.235294;" d="M 63.507812 422.082031 L 63.507812 427.375 C 63.507812 439.101562 72.949219 448.542969 84.675781 448.542969 L 190.519531 448.542969 L 190.519531 443.25 L 84.675781 443.25 C 72.949219 443.25 63.507812 433.808594 63.507812 422.082031 Z M 63.507812 422.082031 "/>
<path style=" stroke:none;fill-rule:nonzero;fill:rgb(12.941177%,12.941177%,12.941177%);fill-opacity:1;" d="M 84.675781 44.839844 C 72.140625 44.839844 62.007812 54.972656 62.007812 67.507812 L 62.007812 427.375 C 62.007812 439.90625 72.140625 450.042969 84.675781 450.042969 L 190.519531 450.042969 C 191.347656 450.042969 192.019531 449.371094 192.019531 448.542969 L 192.019531 46.339844 C 192.019531 45.511719 191.347656 44.839844 190.519531 44.839844 Z M 84.675781 47.839844 L 189.019531 47.839844 L 189.019531 447.042969 L 84.675781 447.042969 C 73.75 447.042969 65.007812 438.296875 65.007812 427.375 L 65.007812 67.507812 C 65.007812 56.585938 73.75 47.839844 84.675781 47.839844 Z M 84.675781 47.839844 "/>
<path style="fill-rule:nonzero;fill:url(#linear4);stroke-width:3;stroke-linecap:round;stroke-linejoin:round;stroke:rgb(12.941177%,12.941177%,12.941177%);stroke-opacity:1;stroke-miterlimit:4;" d="M 232.833234 -41.66499 L 402.16472 -41.66499 C 408.011818 -41.66499 412.749647 -36.927161 412.749647 -31.083969 L 412.749647 -20.499043 C 412.749647 -14.655851 408.011818 -9.918022 402.16472 -9.918022 L 232.833234 -9.918022 C 226.990042 -9.918022 222.248308 -14.655851 222.248308 -20.499043 L 222.248308 -31.083969 C 222.248308 -36.927161 226.990042 -41.66499 232.833234 -41.66499 Z M 232.833234 -41.66499 " transform="matrix(1.000095,0,0,1.000095,0,215.020531)"/>
<path style="fill-rule:nonzero;fill:url(#linear5);stroke-width:3;stroke-linecap:round;stroke-linejoin:round;stroke:rgb(12.941177%,12.941177%,12.941177%);stroke-opacity:1;stroke-miterlimit:4;" d="M 232.833234 21.832852 L 402.16472 21.832852 C 408.011818 21.832852 412.749647 26.570681 412.749647 32.417779 L 412.749647 42.9988 C 412.749647 48.845898 408.011818 53.583727 402.16472 53.583727 L 232.833234 53.583727 C 226.990042 53.583727 222.248308 48.845898 222.248308 42.9988 L 222.248308 32.417779 C 222.248308 26.570681 226.990042 21.832852 232.833234 21.832852 Z M 232.833234 21.832852 " transform="matrix(1.000095,0,0,1.000095,0,215.020531)"/>
<path style="fill-rule:nonzero;fill:url(#linear6);stroke-width:3;stroke-linecap:round;stroke-linejoin:round;stroke:rgb(12.941177%,12.941177%,12.941177%);stroke-opacity:1;stroke-miterlimit:4;" d="M 232.833234 85.334601 L 402.16472 85.334601 C 408.011818 85.334601 412.749647 90.07243 412.749647 95.915622 L 412.749647 106.500548 C 412.749647 112.34374 408.011818 117.081569 402.16472 117.081569 L 232.833234 117.081569 C 226.990042 117.081569 222.248308 112.34374 222.248308 106.500548 L 222.248308 95.915622 C 222.248308 90.07243 226.990042 85.334601 232.833234 85.334601 Z M 232.833234 85.334601 " transform="matrix(1.000095,0,0,1.000095,0,215.020531)"/>
</g>
</svg>

<svg xmlns="http://www.w3.org/2000/svg" width="512pt" height="512pt" viewBox="0 0 512 512"><defs><radialGradient id="a" gradientUnits="userSpaceOnUse" cx="450.909" cy="189.579" fx="450.909" fy="189.579" r="21.167" gradientTransform="matrix(0 -1.25012 -2.25021 0 823.506 1017.525)"><stop offset="0" stop-opacity=".314"/><stop offset=".222" stop-opacity=".275"/><stop offset="1" stop-opacity="0"/></radialGradient><radialGradient id="b" gradientUnits="userSpaceOnUse" cx="450.909" cy="189.579" fx="450.909" fy="189.579" r="21.167" gradientTransform="matrix(0 1.25012 2.25021 0 -315.457 -120.44)"><stop offset="0" stop-opacity=".314"/><stop offset=".222" stop-opacity=".275"/><stop offset="1" stop-opacity="0"/></radialGradient><radialGradient id="c" gradientUnits="userSpaceOnUse" cx="450.909" cy="189.579" fx="450.909" fy="189.579" r="21.167" gradientTransform="matrix(0 -1.25012 2.25021 0 -315.457 1017.525)"><stop offset="0" stop-opacity=".314"/><stop offset=".222" stop-opacity=".275"/><stop offset="1" stop-opacity="0"/></radialGradient><radialGradient id="d" gradientUnits="userSpaceOnUse" cx="450.909" cy="189.579" fx="450.909" fy="189.579" r="21.167" gradientTransform="matrix(0 1.25012 -2.25021 0 823.506 -120.44)"><stop offset="0" stop-opacity=".314"/><stop offset=".222" stop-opacity=".275"/><stop offset="1" stop-opacity="0"/></radialGradient><linearGradient id="e" gradientUnits="userSpaceOnUse" x1="255.323" y1="228.179" x2="255.323" y2="254.667" gradientTransform="matrix(4.27521 0 0 .79918 -795.199 266.187)"><stop offset="0" stop-opacity=".275"/><stop offset="1" stop-opacity="0"/></linearGradient><linearGradient id="f" gradientUnits="userSpaceOnUse" x1="328.083" y1="233.5" x2="328.083" y2="-168.667" gradientTransform="matrix(1.0001 0 0 1.0001 0 215.02)"><stop offset="0" stop-color="#e0e0e0"/><stop offset="1" stop-color="#eee"/></linearGradient><linearGradient id="g" gradientUnits="userSpaceOnUse" x1="275.167" y1="233.5" x2="275.167" y2="-168.667" gradientTransform="translate(-10.583)"><stop offset="0" stop-color="#5c6bc0"/><stop offset="1" stop-color="#7986cb"/></linearGradient><linearGradient id="h" gradientUnits="userSpaceOnUse" x1="127" y1="233.5" x2="127" y2="-168.667" gradientTransform="matrix(1.0001 0 0 1.0001 0 215.02)"><stop offset="0" stop-color="#5c6bc0"/><stop offset="1" stop-color="#7986cb"/></linearGradient><linearGradient id="i" gradientUnits="userSpaceOnUse" x1="285.75" y1="170" x2="285.75" y2="-232.167" gradientTransform="translate(-10.583 63.5)"><stop offset="0" stop-color="#5c6bc0"/><stop offset="1" stop-color="#7986cb"/></linearGradient><linearGradient id="j" gradientUnits="userSpaceOnUse" x1="285.75" y1="106.5" x2="285.75" y2="-295.667" gradientTransform="translate(-10.583 127)"><stop offset="0" stop-color="#5c6bc0"/><stop offset="1" stop-color="#7986cb"/></linearGradient><linearGradient id="k" gradientUnits="userSpaceOnUse" x1="285.75" y1="43" x2="285.75" y2="-359.167" gradientTransform="translate(-10.583 190.5)"><stop offset="0" stop-color="#5c6bc0"/><stop offset="1" stop-color="#7986cb"/></linearGradient></defs><path d="M402.207 448.543h42.336v-21.168h-42.336zm0 0" fill="url(#a)"/><path d="M105.844 448.543H63.508v21.168h42.336zm0 0" fill="url(#b)"/><path d="M105.844 448.543H63.508v-21.168h42.336zm0 0" fill="url(#c)"/><path d="M402.207 448.543h42.336v21.168h-42.336zm0 0" fill="url(#d)"/><path d="M105.844 440.11h296.36v29.6h-296.36zm0 0" fill="url(#e)"/><path d="M179.934 46.336h243.441c11.691 0 21.168 9.48 21.168 21.172v359.867c0 11.691-9.477 21.168-21.168 21.168H179.934c-11.692 0-21.168-9.477-21.168-21.168V67.508c0-11.692 9.476-21.172 21.168-21.172zm0 0" fill="url(#f)"/><path d="M444.543 258.023l-79.961 27.856 27.852 79.96 52.109-18.148zm-93.29 32.5l-79.964 27.852 27.856 79.965 79.964-27.856zm93.29 72.11l-47.465 16.535 24.164 69.375h2.133a21.122 21.122 0 0 0 21.168-21.168zm-60.793 21.18l-79.96 27.851 12.843 36.879H406.3zm0 0" fill="#222" fill-opacity=".157"/><path d="M232.833-105.167h169.332c5.847 0 10.585 4.738 10.585 10.585V-84c0 5.847-4.738 10.585-10.585 10.585H232.833c-5.843 0-10.585-4.738-10.585-10.585v-10.58c0-5.848 4.742-10.586 10.585-10.586zm0 0" transform="matrix(1.0001 0 0 1.0001 0 215.02)" fill="url(#g)" stroke-width="3" stroke-linecap="round" stroke-linejoin="round" stroke="#212121"/><path d="M179.934 46.336a21.123 21.123 0 0 0-21.168 21.172v5.289a21.122 21.122 0 0 1 21.168-21.168h243.441a21.122 21.122 0 0 1 21.168 21.168v-5.29a21.123 21.123 0 0 0-21.168-21.171zm0 0" fill="#fff"/><path d="M158.766 422.082v5.293a21.122 21.122 0 0 0 21.168 21.168h243.441a21.122 21.122 0 0 0 21.168-21.168v-5.293a21.122 21.122 0 0 1-21.168 21.168H179.934a21.122 21.122 0 0 1-21.168-21.168zm0 0" fill-opacity=".235"/><path d="M179.934 44.84c-12.532 0-22.668 10.133-22.668 22.668v359.867c0 12.531 10.136 22.668 22.668 22.668h243.441c12.531 0 22.668-10.137 22.668-22.668V67.508c0-12.535-10.137-22.668-22.668-22.668zm0 3h243.441a19.592 19.592 0 0 1 19.668 19.668v359.867a19.592 19.592 0 0 1-19.668 19.668H179.934a19.592 19.592 0 0 1-19.668-19.668V67.508a19.592 19.592 0 0 1 19.668-19.668zm0 0" fill="#212121"/><path d="M84.676 46.336a21.123 21.123 0 0 0-21.168 21.172v359.867a21.122 21.122 0 0 0 21.168 21.168H190.52V46.336zm0 0" fill="url(#h)"/><path d="M84.676 46.336a21.123 21.123 0 0 0-21.168 21.172v5.289a21.122 21.122 0 0 1 21.168-21.168h100.55v396.914h5.294V46.336zm0 0" fill="#fff" fill-opacity=".392"/><path d="M63.508 422.082v5.293a21.122 21.122 0 0 0 21.168 21.168H190.52v-5.293H84.676a21.122 21.122 0 0 1-21.168-21.168zm0 0" fill-opacity=".235"/><path d="M84.676 44.84c-12.535 0-22.668 10.133-22.668 22.668v359.867c0 12.531 10.133 22.668 22.668 22.668H190.52a1.5 1.5 0 0 0 1.5-1.5V46.34a1.5 1.5 0 0 0-1.5-1.5zm0 3H189.02v399.203H84.676a19.59 19.59 0 0 1-19.668-19.668V67.508A19.59 19.59 0 0 1 84.676 47.84zm0 0" fill="#212121"/><path d="M232.833-41.665h169.332c5.847 0 10.585 4.738 10.585 10.581v10.585c0 5.843-4.738 10.581-10.585 10.581H232.833c-5.843 0-10.585-4.738-10.585-10.581v-10.585c0-5.843 4.742-10.581 10.585-10.581zm0 0" transform="matrix(1.0001 0 0 1.0001 0 215.02)" fill="url(#i)" stroke-width="3" stroke-linecap="round" stroke-linejoin="round" stroke="#212121"/><path d="M232.833 21.833h169.332c5.847 0 10.585 4.738 10.585 10.585v10.58c0 5.848-4.738 10.586-10.585 10.586H232.833c-5.843 0-10.585-4.738-10.585-10.585V32.418c0-5.847 4.742-10.585 10.585-10.585zm0 0" transform="matrix(1.0001 0 0 1.0001 0 215.02)" fill="url(#j)" stroke-width="3" stroke-linecap="round" stroke-linejoin="round" stroke="#212121"/><path d="M232.833 85.335h169.332c5.847 0 10.585 4.737 10.585 10.58v10.586c0 5.843-4.738 10.58-10.585 10.58H232.833c-5.843 0-10.585-4.737-10.585-10.58V95.916c0-5.844 4.742-10.581 10.585-10.581zm0 0" transform="matrix(1.0001 0 0 1.0001 0 215.02)" fill="url(#k)" stroke-width="3" stroke-linecap="round" stroke-linejoin="round" stroke="#212121"/></svg>
